picto/luggage-push-carts.svg

<svg class="color-immutable" width="24" height="24" viewBox="0 0 24 24" fill="none" xmlns="http://www.w3.org/2000/svg"><path d="M0 22.5V1.5C0 0.675 0.675 0 1.5 0H22.5C23.325 0 24 0.675 24 1.5V22.5C24 23.325 23.325 24 22.5 24H1.5C0.675 24 0 23.325 0 22.5Z" fill="#2D327D"/><path d="M7.68701 16.688H17.437C18.266 16.688 18.937 16.015 18.937 15.188V10.5C18.937 9.67198 18.265 8.99998 17.437 8.99998H14.625V8.24898C14.625 7.83598 14.289 7.50098 13.874 7.50098H11.25C10.836 7.50098 10.499 7.83598 10.499 8.24898V8.99998H7.68701C6.85901 8.99998 6.18701 9.67098 6.18701 10.5V15.189C6.18701 16.015 6.86001 16.688 7.68701 16.688ZM11.25 8.24898H13.874V8.99998H11.25V8.24898Z" fill="white"/><path d="M18.938 18V17.251H5.624V7.87498C5.624 7.66898 5.457 7.50098 5.25 7.50098H3.375C3.168 7.50098 3 7.66898 3 7.87498C3 8.08198 3.168 8.24898 3.375 8.24898H4.875V18H18.938Z" fill="white"/><path d="M17.768 18.552C17.095 18.552 16.549 19.098 16.549 19.77C16.549 20.443 17.094 20.989 17.768 20.989C18.44 20.989 18.986 20.443 18.986 19.77C18.986 19.098 18.44 18.552 17.768 18.552Z" fill="white"/><path d="M6.124 18.552C5.451 18.552 4.905 19.098 4.905 19.77C4.905 20.443 5.451 20.989 6.124 20.989C6.797 20.989 7.342 20.443 7.342 19.77C7.342 19.098 6.796 18.552 6.124 18.552Z" fill="white"/></svg>

<svg class="color-immutable" width="24" height="24" viewBox="0 0 24 24" fill="none" xmlns="http://www.w3.org/2000/svg"><g clip-path="url(#a)"><path d="M0 22.5v-21C0 .675.675 0 1.5 0h21c.825 0 1.5.675 1.5 1.5v21c0 .825-.675 1.5-1.5 1.5h-21C.675 24 0 23.325 0 22.5Z" fill="#2D327D"/><path d="M7.687 16.688h9.75a1.5 1.5 0 0 0 1.5-1.5V10.5a1.5 1.5 0 0 0-1.5-1.5h-2.812v-.751a.75.75 0 0 0-.751-.748H11.25a.75.75 0 0 0-.751.748V9H7.687a1.5 1.5 0 0 0-1.5 1.5v4.689c0 .826.673 1.499 1.5 1.499Zm3.563-8.439h2.624V9H11.25v-.751Z" fill="#fff"/><path d="M18.938 18v-.749H5.624V7.875a.374.374 0 0 0-.374-.374H3.375a.375.375 0 1 0 0 .748h1.5V18h14.063ZM17.768 18.552a1.22 1.22 0 1 0 0 2.438 1.22 1.22 0 0 0 0-2.438ZM6.124 18.552a1.22 1.22 0 1 0 0 2.438 1.22 1.22 0 0 0 0-2.438Z" fill="#fff"/></g><defs><clipPath id="a"><path fill="#fff" d="M0 0h24v24H0z"/></clipPath></defs></svg>
